X:1
T:Title
%%score { ( 1 4 ) | ( 2 3 5 ) }
L:1/8
Q:1/4=106
M:4/4
K:C
V:1 treble nm="Grand Piano"
V:4 treble 
V:2 bass 
V:3 bass 
V:5 bass 
V:1
 G2 E2 A2 E2 | FGAB c4 | c4 d2 c2 | G6[K:bass] z2 | A2 c2 B2 A2 | G2 E2 G2 c2 | %6
w: J.~P.~Scholfield * * *||||||
 [C^FA]4 [Fd] [Fe]3 | d6 z2 | c4 G2 F2 | E2 D2 C2 z2 | F2 G2 [CFA]2 [A,CF]2 | [CE]4 [B,D]4 | %12
w: ||||||
 G3 A B2 G2 | [Gc]2 [FB]2 [Ec]2 [CG]2 | [CFA]3 [CGB] [CAc]2 [CFA]2 | %15
w: |||
[M:9/8] [FB]2 [Ec]- [Ec] [Fd]2- [Fd] [FG]2 |[M:4/4] .e2 z2 z4 | .[CE]2[K:bass] [B,D]2 C2- [G,C]2 | %18
w: |||
 F2 G2 [CFA]2 [DGB]2 |[M:5/4] [CEc]2 [Ad]2 [^Ge]6 |[M:4/4] [Gf]3 [Ge] [DGd]2 [Gf]2 | %21
w: |||
 [Ge]2 [CGc]2 [CFA]2 [FAd]2 | [EGc]4 [DFB]4 | [CEc]8 |] %24
w: |||
V:2
 [C,C]2- [C,G,C]2 [C,C]2- [C,G,C]2 | [C,C]4 z4 | [F,A,F]4 [F,^G,F]2 [F,A,F]2 | [CE]6 z2 | %4
 [C,C]2- [C,A,C]2 [C,C]2- [C,F,C]2 | [C,C]4 [C,C]4 | D,4 [D,C] [D,C]3 | G4 z4 | C4 G,2 F,2 | %9
 E,2 D,2 C,2 z2 | A,2 z2 z4 | G,8 | [G,B,D]3 [G,CE] [G,DF]2[K:bass] [F,B,D]2 | %13
 [E,C]2 [D,G,]2 [C,G,]2 E,2 | F,3 F, F,2 F,2 |[M:9/8] D,2 [C,G,]- [C,G,] [G,B,]2- [G,B,] [D,B,]2 | %16
[M:4/4] C4 z4 | z .G,3 z4 | A,2 z2 z4 |[M:5/4] A,2 [F,A,]2 [E,B,]6 | %20
[M:4/4] [D,B,]3 [C,C] B,,2 [G,B,]2 | [C,C]2 E,2 F,2 D,2 | G,4 G,,4 | C,8 |] %24
V:3
 E,2 z2 F,2 z2 | A,E,F,D, [C,E,G,C]4 | x8 | G,2 z2 z4 | F,2 z2 G,2 z2 | E,2 G,2 E,2 E,2 | x8 | %7
 [G,B,]6 z2 | x8 | x8 | [F,C]2- [F,B,C]2 F,2 F,2 | z4 G,,4 | x6[K:bass] x2 | x8 | x8 |[M:9/8] x9 | %16
[M:4/4] C,D,E,F, G,2 G,,2 | z2 z F, C,2 E,2 | [F,C]2- [F,B,C]2 F,2 F,2 |[M:5/4] x10 |[M:4/4] x8 | %21
 x8 | x8 | x8 |] %24
V:4
 x8 | x8 | x8 | z2[K:bass] E,2 C,2 z2 | x8 | x8 | x8 | z4 F2 z2 | x8 | x8 | x8 | x8 | x8 | x8 | %14
 x8 |[M:9/8] x9 |[M:4/4] G-[G-d][Gc][FA] [CEG]2 [B,DF]2 | z4[K:bass] E,2 z2 | x8 |[M:5/4] x10 | %20
[M:4/4] x8 | x8 | x8 | x8 |] %24
V:5
 x8 | x8 | x8 | x8 | x8 | x8 | x8 | x8 | x8 | x8 | x8 | x8 | x6[K:bass] x2 | x8 | x8 |[M:9/8] x9 | %16
[M:4/4] x8 | C,2 G,,2 z4 | x8 |[M:5/4] x10 |[M:4/4] x8 | x8 | x8 | x8 |] %24

